X: 3021
Q:"Strathspey."
M: C
L: 1/16
K: D
uF2 |\
vA,D3 D3uE vF3vGuA3uB | A3Bd3F GFED B,D3 |\
uf2 |\
d3fa3f a3ba3f |
e3de3f dB3 B3d |\
[1 d3fa3f a3ba3f | e3de3f ddd2 d2 :|\
[2 A3Bd3e f3ga3f | e3de3f ddd2 d2 |]


